X: 4194
T: JACKSON'S MORNING BRUSH
R: Jig
%R: jig
B: James Kerr "Merry Melodies" v.4 p.22 #194
Z: 2016 John Chambers <jc:trillian.mit.edu>
M: 6/8
L: 1/8
K: D
D |\
DEF EFE | DFA AFA | BAB def | gfg e2f |\
DEF EFE | DFA AFA | BAB d2e | fdd d2 :|\
|: g |\
fed faf | gbg fag | fed faf | gfg e2g |
fed faf | gbg faf | dcd ege | fdd d2 :|\
|: g |\
fdf ece | dcB AFA | DFA def | gfg e2g |\
fdf ece | dcB AFA | DFA d2e | fdd d2 :|

%%sep 1 1 500
%%sep 1 1 500

